lib/flags/l/499.svg

<svg xmlns="http://www.w3.org/2000/svg" fill="none" viewBox="0 0 32 24"><mask id="499_svg__a" width="32" height="24" x="0" y="0" mask-type="alpha" maskUnits="userSpaceOnUse"><path fill="#fff" d="M0 0H32V24H0z"/></mask><g mask="url(#499_svg__a)"><path fill="#E8AA00" fill-rule="evenodd" d="M0 0H32V24H0V0Z" clip-rule="evenodd"/><path fill="#C51918" fill-rule="evenodd" d="M4 4H28V20H4V4Z" clip-rule="evenodd"/><mask id="499_svg__b" width="24" height="16" x="4" y="4" mask-type="alpha" maskUnits="userSpaceOnUse"><path fill="#fff" fill-rule="evenodd" d="M4 4H28V20H4V4Z" clip-rule="evenodd"/></mask><g mask="url(#499_svg__b)"><path fill="#1E5E91" fill-rule="evenodd" d="M20.2308 15.7514C20.6386 15.7514 20.9692 15.4126 20.9692 14.9947C20.9692 14.5767 20.6386 14.2379 20.2308 14.2379C19.8229 14.2379 19.4923 14.5767 19.4923 14.9947C19.4923 15.4126 19.8229 15.7514 20.2308 15.7514Z" clip-rule="evenodd"/><path fill="#F6C540" fill-rule="evenodd" d="M10.6276 12.3318C8.69032 10.0804 11.4668 6.17322 11.4668 6.17322C11.4668 6.17322 11.8819 8.50677 13.4183 10.077C13.4183 10.1885 13.2732 10.353 13.1263 10.5196C13.0237 10.6359 12.9203 10.7532 12.8647 10.8542C12.7296 11.0997 13.1934 11.2396 13.4183 11.2396C13.5192 11.2396 13.575 11.386 13.6253 11.5181C13.6871 11.6804 13.7407 11.8211 13.8597 11.6428C14.0756 11.3194 13.6438 10.6087 13.6438 10.6087L14.3274 9.88767L14.5586 9.42159H14.3274V8.94175L14.1654 9.07476C14.1654 9.07476 13.9877 8.64572 13.6438 8.64572C13.3 8.64572 13.1934 8.44952 13.1934 8.44952H13.6438C13.8694 8.44952 13.6078 8.15063 13.4183 7.99494C13.3333 7.92515 13.2044 7.94921 13.0881 7.97093C12.9449 7.99767 12.8206 8.02086 12.8206 7.86114C12.8206 7.68607 12.957 7.66287 13.1145 7.63607C13.2174 7.61855 13.3294 7.5995 13.4183 7.5355C13.5653 7.42964 13.7634 7.46219 13.9779 7.49742C14.0916 7.51608 14.2098 7.5355 14.3274 7.5355H14.8844C15.0855 7.5355 14.5586 7.86114 14.5586 7.86114L14.8844 8.15063L15.3688 8.64572L15.1266 8.78953L15.6265 9.27432C15.6265 9.27432 15.4568 9.55024 15.6265 9.55024C15.6964 9.55024 15.7425 9.60757 15.7724 9.67496C15.8024 9.60757 15.8484 9.55024 15.9183 9.55024C16.088 9.55024 15.9183 9.27432 15.9183 9.27432L16.4183 8.78953L16.176 8.64572L16.6605 8.15063L16.9863 7.86114C16.9863 7.86114 16.4593 7.5355 16.6605 7.5355H17.2174C17.3351 7.5355 17.4533 7.51608 17.5669 7.49742C17.7814 7.46219 17.9795 7.42964 18.1266 7.5355C18.2154 7.5995 18.3274 7.61855 18.4304 7.63607C18.5879 7.66287 18.7242 7.68607 18.7242 7.86114C18.7242 8.02086 18.5999 7.99767 18.4567 7.97093C18.3404 7.94921 18.2115 7.92515 18.1266 7.99494C17.937 8.15063 17.6754 8.44952 17.901 8.44952H18.3514C18.3514 8.44952 18.2449 8.64572 17.901 8.64572C17.5571 8.64572 17.3794 9.07476 17.3794 9.07476L17.2174 8.94175V9.42159H16.9863L17.2174 9.88767L17.901 10.6087C17.901 10.6087 17.4692 11.3194 17.6851 11.6428C17.8041 11.8211 17.8577 11.6804 17.9195 11.5181C17.9699 11.386 18.0256 11.2396 18.1266 11.2396C18.3514 11.2396 18.8152 11.0997 18.6801 10.8542C18.6246 10.7532 18.5211 10.6359 18.4185 10.5196C18.2716 10.353 18.1266 10.1885 18.1266 10.077C19.6629 8.50677 20.078 6.17322 20.078 6.17322C20.078 6.17322 22.8545 10.0804 20.9173 12.3318C18.98 14.5833 17.5571 13.9044 17.5571 13.9044L18.3514 14.6167L18.1266 14.8113H18.7884L18.545 14.974L18.7242 15.0525L18.9138 15.1355C18.9138 15.1355 18.4026 15.5115 18.9138 15.5115C18.9945 15.5115 19.0801 15.5091 19.1681 15.5067C19.2645 15.504 19.364 15.5012 19.4633 15.5014C19.4901 15.5015 19.4303 15.3541 19.3709 15.208C19.3124 15.0638 19.2543 14.9208 19.2805 14.922C19.3357 14.9243 19.4443 15.0554 19.5533 15.1869C19.6401 15.2918 19.7272 15.3969 19.7877 15.4374C19.8267 15.4634 19.9789 15.4106 20.1199 15.3616C20.2391 15.3202 20.3504 15.2815 20.3785 15.2957C20.4974 15.3557 20.467 15.4771 20.438 15.5927C20.4306 15.6225 20.4232 15.6518 20.4186 15.6796C20.4143 15.7049 20.5666 15.6061 20.7267 15.5022C20.8949 15.3931 21.0718 15.2784 21.0853 15.2957C21.0881 15.2993 21.0912 15.303 21.0944 15.3069C21.1516 15.3757 21.2437 15.4865 20.5637 16.0106C20.5637 16.1114 20.5673 16.1936 20.5702 16.2604C20.5795 16.4749 20.5819 16.5304 20.4367 16.5304C20.3719 16.5304 20.2814 16.5625 20.1765 16.5997C19.9075 16.695 19.5443 16.8237 19.2805 16.5304C18.9138 16.1227 18.3514 15.5115 18.3514 15.5115V15.8119L17.6851 15.1355L17.5571 15.5115L16.6605 14.4816L16.4183 14.6167C16.4183 14.6167 17.2436 16.8944 17.6851 16.9102C17.9045 16.9181 17.5713 17.131 17.1301 17.413C16.6833 17.6985 16.1257 18.0548 15.9183 18.341C15.8566 18.4262 15.8089 18.2963 15.7724 18.0139C15.7359 18.2963 15.6882 18.4262 15.6265 18.341C15.4191 18.0548 14.8615 17.6985 14.4148 17.413C13.9735 17.131 13.6404 16.9181 13.8597 16.9102C14.3012 16.8944 15.1266 14.6167 15.1266 14.6167L14.8844 14.4816L13.9877 15.5115L13.8597 15.1355L13.1934 15.8119V15.5115C13.1934 15.5115 12.631 16.1227 12.2643 16.5304C12.0005 16.8237 11.6373 16.695 11.3683 16.5997C11.2634 16.5625 11.1729 16.5304 11.1082 16.5304C10.8775 16.5304 10.8003 16.2076 11.1082 15.8119C11.3675 15.4786 11.9074 15.4936 12.3768 15.5067C12.4648 15.5091 12.5503 15.5115 12.631 15.5115C13.1422 15.5115 12.631 15.1355 12.631 15.1355L12.8206 15.0525L12.9998 14.974L12.7564 14.8113H13.4183L13.1934 14.6167L13.9877 13.9044C13.9877 13.9044 12.5648 14.5833 10.6276 12.3318Z" clip-rule="evenodd"/><path fill="#F6C540" fill-rule="evenodd" d="M12.433 17.0304L11.5579 15.4962C11.5579 15.4962 10.4137 12.8581 10.4137 12.5378C10.4137 12.2175 9.95312 11.269 9.95312 11.5444C9.95312 11.8197 9.95312 12.5378 9.95312 12.5378L11.8836 16.8868V17.2295H12.1436L12.433 17.0304Z" clip-rule="evenodd"/><path fill="#F6C540" d="M19.4419 14.965L19.575 14.5231L21.2009 15.0129L21.0678 15.4548L19.4419 14.965Z"/><path fill="#F6C540" d="M20.3078 14.1604L20.7475 14.3043L20.3179 15.6823L19.8783 15.5384L20.3078 14.1604Z"/><path fill="#F6C540" fill-rule="evenodd" d="M20.7173 13.7111 20.6228 13.6896 20.5844 13.8416 20.4108 13.7989 20.3894 13.8917 20.5611 13.9339 20.5173 14.1072 20.6118 14.1287 20.6552 13.957 20.8261 13.9989 20.8474 13.9062 20.6785 13.8647 20.7173 13.7111zM15.6944 5.22253 15.7419 5.38834H15.8863L15.9339 5.22253C16.054 5.2587 16.163 5.29985 16.2607 5.34578L16.264 5.30948C17.0359 5.37998 17.4364 5.70306 17.3935 6.27109 17.3579 6.74129 17.1199 6.98763 16.7231 6.98132V7.33254C16.7231 7.33254 16.0769 7.58058 15.7538 7.58058 15.4308 7.58058 14.7846 7.33254 14.7846 7.33254V6.97538C14.4578 6.93497 14.2627 6.69327 14.2308 6.27109 14.1879 5.70306 14.5884 5.37998 15.3602 5.30948L15.3637 5.34759C15.4624 5.30093 15.5727 5.25917 15.6944 5.22253zM14.8773 6.66682C14.8338 6.679 14.8032 6.68798 14.7908 6.69167 14.6136 6.65844 14.5271 6.51685 14.507 6.25087 14.4867 5.98196 14.613 5.79487 14.9109 5.68698 14.7077 5.94709 14.6928 6.27798 14.8773 6.66682zM15.1524 6.59515C15.3153 6.55602 15.5037 6.51711 15.6547 6.50375V5.53308C15.0348 5.7506 14.8859 6.08338 15.1524 6.59515zM15.9316 6.51248C16.1393 6.53971 16.3915 6.60211 16.5545 6.646L16.4728 6.6009C16.7494 6.07447 16.589 5.7367 15.9316 5.51875V6.51248zM16.7189 5.68902C16.9263 5.95605 16.9357 6.29741 16.7351 6.6993 16.9794 6.70297 17.0937 6.56205 17.1173 6.25087 17.1375 5.98365 17.0128 5.79723 16.7189 5.68902z" clip-rule="evenodd"/><path fill="#3D58DB" fill-rule="evenodd" d="M15.7539 5.5192C15.9323 5.5192 16.0769 5.37455 16.0769 5.19612C16.0769 5.01769 15.9323 4.87305 15.7539 4.87305C15.5754 4.87305 15.4308 5.01769 15.4308 5.19612C15.4308 5.37455 15.5754 5.5192 15.7539 5.5192Z" clip-rule="evenodd"/><path fill="#F6C540" fill-rule="evenodd" d="M15.7989 4.49833L15.702 4.50029L15.7015 4.65709L15.5226 4.65772L15.5244 4.75291L15.7012 4.75228L15.7006 4.93099L15.7975 4.92903L15.7981 4.75193L15.974 4.7513L15.9723 4.65612L15.7984 4.65674L15.7989 4.49833Z" clip-rule="evenodd"/><path fill="#1E5E91" fill-rule="evenodd" d="M13.9539 10.3595C13.9539 10.3595 15.0916 10.1448 15.7077 10.1448C16.2608 10.1448 17.4616 10.3595 17.4616 10.3595C17.4616 11.7195 17.8443 12.5522 17.4616 13.4811C17.0788 14.41 16.1435 13.9635 15.7202 14.8524C15.1792 14.0092 14.4486 14.4734 13.9539 13.2727C13.4592 12.0721 14.2546 11.5191 13.9539 10.3595Z" clip-rule="evenodd"/><mask id="499_svg__c" width="5" height="5" x="13" y="10" mask-type="alpha" maskUnits="userSpaceOnUse"><path fill="#fff" fill-rule="evenodd" d="M13.9539 10.3595C13.9539 10.3595 15.0916 10.1448 15.7077 10.1448C16.2608 10.1448 17.4616 10.3595 17.4616 10.3595C17.4616 11.7195 17.8443 12.5522 17.4616 13.4811C17.0788 14.41 16.1435 13.9635 15.7202 14.8524C15.1792 14.0092 14.4486 14.4734 13.9539 13.2727C13.4592 12.0721 14.2546 11.5191 13.9539 10.3595Z" clip-rule="evenodd"/></mask><g mask="url(#499_svg__c)"><path fill="#5EAA22" d="M13.954 13.197H17.462V14.899999999999999H13.954z"/><path fill="#F6C540" fill-rule="evenodd" d="M14.991 11.0297C14.857 10.7448 15.6953 10.7117 15.6953 10.7117C15.6953 10.7117 15.8761 11.0297 15.6953 11.4822C15.5638 11.8112 15.7831 11.7819 16.0857 11.7414C16.1991 11.7262 16.3243 11.7095 16.4471 11.7095C16.6351 11.7095 16.7341 11.6957 16.8163 11.7266C16.9309 11.7696 17.0128 11.8994 17.2579 12.2743C17.3698 12.4454 17.3649 12.5581 17.2974 12.6255C17.3032 12.7997 17.1136 12.944 16.7635 13.0364L16.7174 12.8532C16.9027 12.8043 17.0161 12.7576 17.0688 12.7059C16.8048 12.722 16.4471 12.5915 16.4471 12.4239C16.4471 12.176 15.6021 12.2282 15.0937 12.2596C14.9641 12.2676 14.8565 12.2743 14.7901 12.2743C14.4944 12.2743 14.7211 11.9129 14.9275 11.584C14.9491 11.5495 14.9705 11.5154 14.991 11.4822C15.097 11.3104 15.1314 11.2666 15.1231 11.2333C15.1145 11.1985 15.0595 11.1752 14.991 11.0297ZM17.0021 10.9856C16.4956 10.9052 16.2115 10.9829 16.2115 11.2663C16.2115 11.5361 16.4811 11.6531 16.9742 11.6513C16.9934 11.6575 17.0103 11.6637 17.0247 11.6697C17.0063 11.6784 16.9838 11.6877 16.9574 11.6972L17.0186 11.8756C17.3296 11.7635 17.3296 11.564 17.0148 11.4661L17.0013 11.4619L16.9872 11.462C16.5773 11.4654 16.3961 11.3885 16.3961 11.2663C16.3961 11.1552 16.5681 11.1081 16.9739 11.1725L17.0021 10.9856Z" clip-rule="evenodd"/></g></g></g></svg>

<svg xmlns="http://www.w3.org/2000/svg" fill="none" viewBox="0 0 32 24"><mask id="499_svg__a" width="32" height="24" x="0" y="0" maskUnits="userSpaceOnUse"><path fill="#fff" d="M0 0h32v24H0z"/></mask><g mask="url(#499_svg__a)"><path fill="#E8AA00" fill-rule="evenodd" d="M0 0h32v24H0V0z" clip-rule="evenodd"/><path fill="#C51918" fill-rule="evenodd" d="M4 4h24v16H4V4z" clip-rule="evenodd"/><mask id="499_svg__b" width="24" height="16" x="4" y="4" maskUnits="userSpaceOnUse"><path fill="#fff" fill-rule="evenodd" d="M4 4h24v16H4V4z" clip-rule="evenodd"/></mask><g mask="url(#499_svg__b)"><path fill="#1E5E91" fill-rule="evenodd" d="M20.23 15.751a.748.748 0 00.74-.756.748.748 0 00-.74-.757.748.748 0 00-.738.757c0 .418.33.756.739.756z" clip-rule="evenodd"/><path fill="#F6C540" fill-rule="evenodd" d="M10.628 12.332c-1.938-2.252.839-6.159.839-6.159s.415 2.334 1.951 3.904c0 .111-.145.276-.292.443a2.172 2.172 0 00-.261.334c-.135.246.328.386.553.386.101 0 .157.146.207.278.062.162.116.303.235.125.216-.324-.216-1.034-.216-1.034l.683-.721.232-.466h-.232v-.48l-.162.133s-.177-.43-.521-.43c-.344 0-.45-.195-.45-.195h.45c.225 0-.036-.3-.226-.455-.085-.07-.214-.046-.33-.024-.143.027-.267.05-.267-.11 0-.175.136-.198.293-.225a.72.72 0 00.304-.1c.147-.106.345-.074.56-.039.114.02.232.038.35.038h.556c.201 0-.325.326-.325.326l.325.29.485.495-.242.144.5.484s-.17.276 0 .276c.07 0 .115.058.145.125.03-.067.076-.125.146-.125.17 0 0-.276 0-.276l.5-.484-.242-.144.485-.495.325-.29s-.527-.325-.326-.325h.557c.118 0 .236-.02.35-.039.214-.035.413-.067.56.038.088.064.2.084.303.101.158.027.294.05.294.225 0 .16-.124.137-.267.11-.117-.022-.245-.046-.33.024-.19.156-.452.455-.226.455h.45s-.106.196-.45.196c-.344 0-.522.429-.522.429l-.162-.133v.48h-.23l.23.466.684.72s-.432.711-.216 1.035c.12.178.173.037.235-.125.05-.132.106-.278.207-.278.224 0 .688-.14.553-.386-.055-.1-.159-.218-.261-.334-.147-.167-.292-.332-.292-.443 1.536-1.57 1.951-3.904 1.951-3.904s2.777 3.907.84 6.159c-1.938 2.251-3.36 1.572-3.36 1.572l.793.713-.224.194h.661l-.243.163.18.079.189.082s-.511.377 0 .377c.08 0 .166-.003.254-.005.097-.003.196-.006.295-.006.027 0-.033-.147-.092-.293-.059-.144-.117-.287-.09-.286.055.002.163.133.272.265.087.105.174.21.235.25.039.026.19-.026.332-.075.12-.042.23-.08.258-.066.12.06.089.181.06.297-.007.03-.015.059-.02.087-.004.025.149-.074.309-.178.168-.109.345-.224.358-.206l.01.01c.057.07.149.18-.531.705 0 .1.003.183.006.25.01.214.012.27-.133.27a.925.925 0 00-.26.069c-.27.095-.633.224-.896-.07a175.79 175.79 0 00-.93-1.019v.3l-.666-.675-.128.376-.896-1.03-.243.135s.826 2.277 1.267 2.293c.22.008-.114.221-.555.503-.447.285-1.004.642-1.212.928-.061.085-.11-.045-.146-.327-.036.282-.084.412-.146.327-.207-.286-.764-.643-1.211-.928-.441-.282-.775-.495-.555-.503.441-.016 1.267-2.293 1.267-2.293l-.243-.135-.896 1.03-.128-.377-.667.677v-.3s-.562.61-.929 1.018c-.263.294-.627.165-.896.07a.907.907 0 00-.26-.07c-.23 0-.308-.322 0-.718.26-.333.8-.318 1.269-.305.088.002.173.005.254.005.511 0 0-.377 0-.377l.19-.082.179-.079-.244-.163h.662l-.225-.194.795-.713s-1.423.68-3.36-1.572z" clip-rule="evenodd"/><path fill="#F6C540" fill-rule="evenodd" d="M12.433 17.03l-.875-1.534s-1.144-2.638-1.144-2.958c0-.32-.46-1.269-.46-.994v.994l1.93 4.349v.342h.26l.289-.199z" clip-rule="evenodd"/><path fill="#F6C540" d="M19.442 14.965l.133-.442 1.626.49-.133.442-1.626-.49z"/><path fill="#F6C540" d="M20.308 14.16l.44.144-.43 1.378-.44-.144.43-1.378z"/><path fill="#F6C540" fill-rule="evenodd" d="M20.717 13.711l-.094-.021-.039.152-.173-.043-.022.093.172.042-.044.173.095.022.043-.172.171.042.021-.093-.169-.041.04-.154zm-5.023-8.489l.048.166h.144l.048-.166c.12.037.229.078.327.124l.003-.037c.772.07 1.172.394 1.13.962-.036.47-.274.717-.67.71v.351s-.647.248-.97.248c-.323 0-.97-.248-.97-.248v-.357c-.326-.04-.521-.282-.553-.704-.043-.568.357-.891 1.13-.962l.003.038c.098-.046.209-.088.33-.125zm-.817 1.445a6.14 6.14 0 00-.086.025c-.177-.034-.264-.175-.284-.441-.02-.27.106-.456.404-.564-.203.26-.218.59-.034.98zm.275-.072c.163-.04.352-.078.503-.091v-.971c-.62.217-.77.55-.503 1.062zm.78-.083c.207.028.46.09.623.134l-.082-.045c.276-.527.116-.864-.541-1.082v.993zm.787-.823c.207.267.217.608.016 1.01.244.004.359-.137.382-.448.02-.267-.104-.454-.398-.562z" clip-rule="evenodd"/><path fill="#3D58DB" fill-rule="evenodd" d="M15.754 5.52a.323.323 0 100-.647.323.323 0 000 .646z" clip-rule="evenodd"/><path fill="#F6C540" fill-rule="evenodd" d="M15.799 4.498l-.097.002v.157h-.18l.002.096h.177v.178l.096-.002.001-.177h.176l-.002-.096h-.174v-.158z" clip-rule="evenodd"/><path fill="#1E5E91" fill-rule="evenodd" d="M13.954 10.36s1.138-.215 1.754-.215c.553 0 1.754.215 1.754.215 0 1.36.382 2.192 0 3.121-.383.929-1.319.482-1.742 1.371-.54-.843-1.271-.379-1.766-1.58-.495-1.2.3-1.753 0-2.912z" clip-rule="evenodd"/><mask id="499_svg__c" width="5" height="5" x="13" y="10" maskUnits="userSpaceOnUse"><path fill="#fff" fill-rule="evenodd" d="M13.954 10.36s1.138-.215 1.754-.215c.553 0 1.754.215 1.754.215 0 1.36.382 2.192 0 3.121-.383.929-1.319.482-1.742 1.371-.54-.843-1.271-.379-1.766-1.58-.495-1.2.3-1.753 0-2.912z" clip-rule="evenodd"/></mask><g mask="url(#499_svg__c)"><path fill="#5EAA22" d="M13.954 13.197h3.508V14.9h-3.508z"/><path fill="#F6C540" fill-rule="evenodd" d="M14.991 11.03c-.134-.285.704-.318.704-.318s.181.318 0 .77c-.131.33.088.3.39.26a2.75 2.75 0 01.362-.033c.188 0 .287-.013.37.018.114.043.196.172.44.547.113.171.108.284.04.352.006.174-.183.318-.534.41l-.046-.183c.186-.049.3-.095.352-.147-.264.016-.622-.114-.622-.282 0-.248-.845-.196-1.353-.164-.13.008-.237.014-.304.014-.296 0-.069-.361.138-.69l.063-.102c.106-.171.14-.215.132-.249-.008-.035-.063-.058-.132-.203zm2.011-.044c-.506-.08-.79-.003-.79.28 0 .27.27.387.762.385l.05.019a.766.766 0 01-.067.027l.062.179c.31-.112.31-.312-.004-.41L17 11.462h-.014c-.41.003-.59-.073-.59-.196 0-.11.171-.158.577-.094l.028-.186z" clip-rule="evenodd"/></g></g></g></svg>
